icons/i_documents_accepted.svg

<svg width="48" height="48" viewBox="0 0 48 48" fill="none" xmlns="http://www.w3.org/2000/svg">
<path d="M32.7071 22.7071C33.0976 22.3166 33.0976 21.6834 32.7071 21.2929C32.3166 20.9024 31.6834 20.9024 31.2929 21.2929L24 28.5858L20.7071 25.2929C20.3166 24.9024 19.6834 24.9024 19.2929 25.2929C18.9024 25.6834 18.9024 26.3166 19.2929 26.7071L24 31.4142L32.7071 22.7071Z" fill="black"/>
<path fill-rule="evenodd" clip-rule="evenodd" d="M38 15V36C38 37.6569 36.6569 39 35 39H17C15.3431 39 14 37.6569 14 36V8C14 6.34315 15.3431 5 17 5H28L38 15ZM28 16C27.4477 16 27 15.5523 27 15V7H17C16.4477 7 16 7.44772 16 8V36C16 36.5523 16.4477 37 17 37H35C35.5523 37 36 36.5523 36 36V16H28ZM29 8.82843L34.1716 14H29V8.82843Z" fill="black"/>
<path d="M12 11V38C12 39.6569 13.3431 41 15 41H34V43H15C12.2386 43 10 40.7614 10 38V11H12Z" fill="black"/>
</svg>

<svg
  xmlns="http://www.w3.org/2000/svg"
  width="24"
  height="24"
  viewBox="0 0 24 24"
  fill="none"
  stroke="currentColor"
  stroke-width="2"
  stroke-linecap="round"
  stroke-linejoin="round"
>
  <path d="M32.707 22.707a1 1 0 0 0-1.414-1.414L24 28.586l-3.293-3.293a1 1 0 0 0-1.414 1.414L24 31.414z" />
  <path
    fill-rule="evenodd"
    d="M38 15v21a3 3 0 0 1-3 3H17a3 3 0 0 1-3-3V8a3 3 0 0 1 3-3h11zm-10 1a1 1 0 0 1-1-1V7H17a1 1 0 0 0-1 1v28a1 1 0 0 0 1 1h18a1 1 0 0 0 1-1V16zm1-7.172L34.172 14H29z"
    clip-rule="evenodd"
  />
  <path d="M12 11v27a3 3 0 0 0 3 3h19v2H15a5 5 0 0 1-5-5V11z" />
</svg>
